X:20
T:Mace Bell's Civil War March
G:Key: A modal
O:from P.T. Bell
S:Howard Rains & Tricia Spencer
N:Very similar to "Bonaparte's March" or "Napoleon Crossing the Alps"
M:C|
L:1/4
K:Ador
P:A
|: e/f/g | "Am"a-a/g/ed | c-c/d/ef | "G"g-g/f/ga | g2 e/f/g | 
"Am"a-a/g/ ed |  cA AG | A-A/G/ AB | A2 :|
P:B
|: E/F/G |"Am"A2 A-A/B/ | AG EG | "C"cd e/d/c |  "D"d2 e/f/g | 
"Am"a-a/g/ ed |  "(F)"cA "(G)"AG | "Am"A-A/G/ AB | A2 :|

